src/assets/icon/krcc-main-third-card-icon.svg

<svg version="1.1" xmlns="http://www.w3.org/2000/svg" xmlns:xlink="http://www.w3.org/1999/xlink" width="60" height="60" viewBox="0,0,256,256"><defs><clipPath id="clip-1"><rect x="0" y="0" width="60" height="60" rx="12" ry="0" id="clip0_170_10866" fill="none" stroke="none" stroke-width="1"></rect></clipPath><clipPath id="clip-2"><rect x="12" y="12" width="36" height="36" id="clip1_170_10866" fill="none" stroke="none" stroke-width="1"></rect></clipPath><linearGradient x1="30" y1="23.7" x2="30" y2="32.0105" gradientUnits="userSpaceOnUse" id="color-1"><stop offset="0" stop-color="#1dd8c3"></stop><stop offset="1" stop-color="#1ca451"></stop></linearGradient><linearGradient x1="27.71691" y1="13.79501" x2="30.28081" y2="37.55991" gradientUnits="userSpaceOnUse" id="color-2"><stop offset="0" stop-color="#f6faff"></stop><stop offset="1" stop-color="#d5f2ce"></stop></linearGradient><linearGradient x1="35.87621" y1="22.1387" x2="16.99453" y2="20.27939" gradientUnits="userSpaceOnUse" id="color-3"><stop offset="0" stop-color="#f8fbff"></stop><stop offset="0.83489" stop-color="#d5f2ce"></stop><stop offset="1" stop-color="#f6faff"></stop></linearGradient><linearGradient x1="32.34052" y1="13.93716" x2="30.40926" y2="38.16029" gradientUnits="userSpaceOnUse" id="color-4"><stop offset="0.32141" stop-color="#ffffff"></stop><stop offset="1" stop-color="#e6fce5"></stop></linearGradient><linearGradient x1="31.35792" y1="26.26556" x2="31.34991" y2="32.0105" gradientUnits="userSpaceOnUse" id="color-5"><stop offset="0.37172" stop-color="#e5effc" stop-opacity="0"></stop><stop offset="0.91813" stop-color="#c6f3e1"></stop></linearGradient><linearGradient x1="22.34996" y1="16.50002" x2="30.89999" y2="29.99994" gradientUnits="userSpaceOnUse" id="color-6"><stop offset="0" stop-color="#e5e7eb"></stop><stop offset="1" stop-color="#e6fce5"></stop></linearGradient><linearGradient x1="33.61852" y1="17.61736" x2="40.13964" y2="21.89546" gradientUnits="userSpaceOnUse" id="color-7"><stop offset="0" stop-color="#e5e7eb"></stop><stop offset="1" stop-color="#e5f9e8"></stop></linearGradient><linearGradient x1="33.169" y1="21.21222" x2="42.61445" y2="22.15128" gradientUnits="userSpaceOnUse" id="color-8"><stop offset="0" stop-color="#e5e7eb"></stop><stop offset="1" stop-color="#e5f9e8"></stop></linearGradient><linearGradient x1="39.01087" y1="24.91294" x2="33.07624" y2="23.5913" gradientUnits="userSpaceOnUse" id="color-9"><stop offset="0" stop-color="#e5f9e8"></stop><stop offset="1" stop-color="#e5e7eb"></stop></linearGradient><linearGradient x1="33.61852" y1="17.61736" x2="40.13964" y2="21.89546" gradientUnits="userSpaceOnUse" id="color-10"><stop offset="0" stop-color="#e5e7eb"></stop><stop offset="1" stop-color="#e5f9e8"></stop></linearGradient><linearGradient x1="33.169" y1="21.21222" x2="42.61445" y2="22.15128" gradientUnits="userSpaceOnUse" id="color-11"><stop offset="0" stop-color="#e5e7eb"></stop><stop offset="1" stop-color="#e5f9e8"></stop></linearGradient><linearGradient x1="39.01087" y1="24.91294" x2="33.07624" y2="23.5913" gradientUnits="userSpaceOnUse" id="color-12"><stop offset="0" stop-color="#e5f9e8"></stop><stop offset="1" stop-color="#e5e7eb"></stop></linearGradient><linearGradient x1="33.61852" y1="17.61736" x2="40.13964" y2="21.89546" gradientUnits="userSpaceOnUse" id="color-13"><stop offset="0" stop-color="#e5e7eb"></stop><stop offset="1" stop-color="#e5f9e8"></stop></linearGradient><linearGradient x1="33.169" y1="21.21222" x2="42.61445" y2="22.15128" gradientUnits="userSpaceOnUse" id="color-14"><stop offset="0" stop-color="#e5e7eb"></stop><stop offset="1" stop-color="#e5f9e8"></stop></linearGradient><linearGradient x1="39.01087" y1="24.91294" x2="33.07624" y2="23.5913" gradientUnits="userSpaceOnUse" id="color-15"><stop offset="0" stop-color="#e5f9e8"></stop><stop offset="1" stop-color="#e5e7eb"></stop></linearGradient><linearGradient x1="29.775" y1="14.9105" x2="29.775" y2="58.1105" gradientUnits="userSpaceOnUse" id="color-16"><stop offset="0" stop-color="#1dd8c3"></stop><stop offset="1" stop-color="#14ff00"></stop></linearGradient><linearGradient x1="29.775" y1="36.5105" x2="29.775" y2="51.8105" gradientUnits="userSpaceOnUse" id="color-17"><stop offset="0" stop-color="#ffffff" stop-opacity="0"></stop><stop offset="1" stop-color="#ffffff"></stop></linearGradient><linearGradient x1="30.2209" y1="29.1" x2="29.3291" y2="47.1" gradientUnits="userSpaceOnUse" id="color-18"><stop offset="0" stop-color="#ffffff"></stop><stop offset="0.51249" stop-color="#ffffff" stop-opacity="0"></stop></linearGradient></defs><g fill="none" fill-rule="nonzero" stroke="none" stroke-width="none" stroke-linecap="butt" stroke-linejoin="miter" stroke-miterlimit="10" stroke-dasharray="" stroke-dashoffset="0" font-family="none" font-weight="none" font-size="none" text-anchor="none" style="mix-blend-mode: normal"><g transform="scale(4.26667,4.26667)"><g clip-path="url(#clip-1)"><rect x="0" y="0" width="60" height="60" rx="12" ry="0" fill="#e6fce5" stroke="none" stroke-width="1"></rect><g clip-path="url(#clip-2)"><rect x="14.7" y="23.7" width="30.6" height="15.3" rx="1.8" ry="0" fill="url(#color-1)" stroke="none" stroke-width="1"></rect><rect x="13.0273" y="16.68844" transform="rotate(-6.1576)" width="26.1" height="23.9028" rx="1.8" ry="0" fill-opacity="0.7" fill="url(#color-2)" stroke="none" stroke-width="1"></rect><rect x="13.02814" y="16.68058" transform="rotate(-6.1576)" width="26.1" height="23.9109" rx="1.8" ry="0" fill="url(#color-3)" stroke="none" stroke-width="1"></rect><rect x="13.16314" y="16.81564" transform="rotate(-6.1576)" width="25.83" height="23.6409" rx="1.665" ry="0" fill="none" stroke-opacity="0.2" stroke="#ffffff" stroke-width="0.27"></rect><rect x="20.29589" y="11.32278" transform="rotate(4.55844)" width="26.1" height="24.3" rx="1.8" ry="0" fill="url(#color-4)" stroke="none" stroke-width="1"></rect><rect x="20.29621" y="23.69028" transform="rotate(4.55844)" width="26.1" height="8.05447" rx="1.8" ry="0" fill="url(#color-5)" stroke="none" stroke-width="1"></rect><g fill="url(#color-6)" stroke="none" stroke-width="1"><rect x="22.99582" y="14.02284" transform="rotate(4.55844)" width="9" height="11.4106" rx="0.675" ry="0"></rect></g><rect x="34.69593" y="14.02287" transform="rotate(4.55844)" width="9" height="1.17" rx="0.585" ry="0" fill="url(#color-7)" stroke="none" stroke-width="1"></rect><rect x="34.69554" y="17.62289" transform="rotate(4.55844)" width="9" height="1.17" rx="0.585" ry="0" fill="url(#color-8)" stroke="none" stroke-width="1"></rect><rect x="34.69505" y="21.22281" transform="rotate(4.55844)" width="3.6" height="1.17" rx="0.585" ry="0" fill="url(#color-9)" stroke="none" stroke-width="1"></rect><g fill="url(#color-10)" stroke="none" stroke-width="1"><rect x="34.69593" y="14.02287" transform="rotate(4.55844)" width="9" height="1.17" rx="0.585" ry="0"></rect></g><g fill="url(#color-11)" stroke="none" stroke-width="1"><rect x="34.69554" y="17.62289" transform="rotate(4.55844)" width="9" height="1.17" rx="0.585" ry="0"></rect></g><g fill="url(#color-12)" stroke="none" stroke-width="1"><rect x="34.69505" y="21.22281" transform="rotate(4.55844)" width="3.6" height="1.17" rx="0.585" ry="0"></rect></g><g fill="url(#color-13)" stroke="none" stroke-width="1"><rect x="34.69593" y="14.02287" transform="rotate(4.55844)" width="9" height="1.17" rx="0.585" ry="0"></rect></g><g fill="url(#color-14)" stroke="none" stroke-width="1"><rect x="34.69554" y="17.62289" transform="rotate(4.55844)" width="9" height="1.17" rx="0.585" ry="0"></rect></g><g fill="url(#color-15)" stroke="none" stroke-width="1"><rect x="34.69505" y="21.22281" transform="rotate(4.55844)" width="3.6" height="1.17" rx="0.585" ry="0"></rect></g><path d="M12.3693,31.2103c-0.1928,-1.1015 0.6549,-2.1103 1.7731,-2.1103h9.1602c0.7748,0 1.4627,0.4958 1.7077,1.2308l0.0794,0.2384c0.245,0.735 0.9329,1.2308 1.7077,1.2308h18.6071c1.1193,0 1.9672,1.0106 1.7726,2.1128l-2.0647,11.7c-0.1517,0.8602 -0.8991,1.4872 -1.7726,1.4872h-26.6774c-0.8745,0 -1.6224,-0.6284 -1.7731,-1.4897z" fill="url(#color-16)" stroke="none" stroke-width="1"></path><path d="M12.3693,31.2103c-0.1928,-1.1015 0.6549,-2.1103 1.7731,-2.1103h9.1602c0.7748,0 1.4627,0.4958 1.7077,1.2308l0.0794,0.2384c0.245,0.735 0.9329,1.2308 1.7077,1.2308h18.6071c1.1193,0 1.9672,1.0106 1.7726,2.1128l-2.0647,11.7c-0.1517,0.8602 -0.8991,1.4872 -1.7726,1.4872h-26.6774c-0.8745,0 -1.6224,-0.6284 -1.7731,-1.4897z" fill-opacity="0.6" fill="url(#color-17)" stroke="none" stroke-width="1"></path><path d="M14.1426,29.3246h9.1601c0.6354,0.0001 1.2039,0.3816 1.4493,0.959l0.0449,0.1182l0.0791,0.2382c0.2756,0.8269 1.0502,1.3848 1.9219,1.3848h18.6064c0.9792,0 1.7217,0.8843 1.5518,1.8486l-2.0655,11.7002c-0.1328,0.7527 -0.7865,1.3018 -1.5508,1.3018h-26.6777c-0.7649,-0.0001 -1.4188,-0.5503 -1.5508,-1.3037l-2.5205,-14.4004c-0.1685,-0.9637 0.5734,-1.8467 1.5518,-1.8467z" fill="none" stroke-opacity="0.3" stroke="url(#color-18)" stroke-width="0.45"></path></g></g></g></g></svg>

<svg width="60" height="60" viewBox="0 0 60 60" fill="none" xmlns="http://www.w3.org/2000/svg">
<g clip-path="url(#clip0_170_10866)">
<rect width="60" height="60" rx="12" fill="#E5EFFC"/>
<g clip-path="url(#clip1_170_10866)">
<rect x="14.7" y="23.7" width="30.6" height="15.3" rx="1.8" fill="url(#paint0_linear_170_10866)"/>
<rect x="14.7422" y="15.1948" width="26.1" height="23.9028" rx="1.8" transform="rotate(-6.1576 14.7422 15.1948)" fill="url(#paint1_linear_170_10866)" fill-opacity="0.7"/>
<rect x="14.7422" y="15.1869" width="26.1" height="23.9109" rx="1.8" transform="rotate(-6.1576 14.7422 15.1869)" fill="url(#paint2_linear_170_10866)"/>
<rect x="14.8909" y="15.3067" width="25.83" height="23.6409" rx="1.665" transform="rotate(-6.1576 14.8909 15.3067)" stroke="white" stroke-opacity="0.2" stroke-width="0.27"/>
<rect x="19.3318" y="12.9" width="26.1" height="24.3" rx="1.8" transform="rotate(4.55844 19.3318 12.9)" fill="url(#paint3_linear_170_10866)"/>
<rect x="18.3492" y="25.2284" width="26.1" height="8.05447" rx="1.8" transform="rotate(4.55844 18.3492 25.2284)" fill="url(#paint4_linear_170_10866)"/>
<g filter="url(#filter0_i_170_10866)">
<rect x="21.8086" y="15.8061" width="9" height="11.4106" rx="0.675" transform="rotate(4.55844 21.8086 15.8061)" fill="url(#paint5_linear_170_10866)"/>
</g>
<rect x="33.4717" y="16.736" width="9" height="1.17" rx="0.585" transform="rotate(4.55844 33.4717 16.736)" fill="url(#paint6_linear_170_10866)"/>
<rect x="33.1852" y="20.3246" width="9" height="1.17" rx="0.585" transform="rotate(4.55844 33.1852 20.3246)" fill="url(#paint7_linear_170_10866)"/>
<rect x="32.8986" y="23.9131" width="3.6" height="1.17" rx="0.585" transform="rotate(4.55844 32.8986 23.9131)" fill="url(#paint8_linear_170_10866)"/>
<g style="">
<rect x="33.4717" y="16.736" width="9" height="1.17" rx="0.585" transform="rotate(4.55844 33.4717 16.736)" fill="url(#paint9_linear_170_10866)"/>
</g>
<g style="">
<rect x="33.1852" y="20.3246" width="9" height="1.17" rx="0.585" transform="rotate(4.55844 33.1852 20.3246)" fill="url(#paint10_linear_170_10866)"/>
</g>
<g style="">
<rect x="32.8986" y="23.9131" width="3.6" height="1.17" rx="0.585" transform="rotate(4.55844 32.8986 23.9131)" fill="url(#paint11_linear_170_10866)"/>
</g>
<g style="">
<rect x="33.4717" y="16.736" width="9" height="1.17" rx="0.585" transform="rotate(4.55844 33.4717 16.736)" fill="url(#paint12_linear_170_10866)"/>
</g>
<g style="">
<rect x="33.1852" y="20.3246" width="9" height="1.17" rx="0.585" transform="rotate(4.55844 33.1852 20.3246)" fill="url(#paint13_linear_170_10866)"/>
</g>
<g style="">
<rect x="32.8986" y="23.9131" width="3.6" height="1.17" rx="0.585" transform="rotate(4.55844 32.8986 23.9131)" fill="url(#paint14_linear_170_10866)"/>
</g>
<path d="M12.3693 31.2103C12.1765 30.1088 13.0242 29.1 14.1424 29.1H23.3026C24.0774 29.1 24.7653 29.5958 25.0103 30.3308L25.0897 30.5692C25.3347 31.3042 26.0226 31.8 26.7974 31.8H45.4045C46.5238 31.8 47.3717 32.8106 47.1771 33.9128L45.1124 45.6128C44.9607 46.473 44.2133 47.1 43.3398 47.1H16.6624C15.7879 47.1 15.04 46.4716 14.8893 45.6103L12.3693 31.2103Z" fill="url(#paint15_linear_170_10866)"/>
<path d="M12.3693 31.2103C12.1765 30.1088 13.0242 29.1 14.1424 29.1H23.3026C24.0774 29.1 24.7653 29.5958 25.0103 30.3308L25.0897 30.5692C25.3347 31.3042 26.0226 31.8 26.7974 31.8H45.4045C46.5238 31.8 47.3717 32.8106 47.1771 33.9128L45.1124 45.6128C44.9607 46.473 44.2133 47.1 43.3398 47.1H16.6624C15.7879 47.1 15.04 46.4716 14.8893 45.6103L12.3693 31.2103Z" fill="url(#paint16_linear_170_10866)" fill-opacity="0.6"/>
<path d="M14.1426 29.3246H23.3027C23.9381 29.3247 24.5066 29.7062 24.752 30.2836L24.7969 30.4018L24.876 30.64C25.1516 31.4669 25.9262 32.0248 26.7979 32.0248H45.4043C46.3835 32.0248 47.126 32.9091 46.9561 33.8734L44.8906 45.5736C44.7578 46.3263 44.1041 46.8754 43.3398 46.8754H16.6621C15.8972 46.8753 15.2433 46.3251 15.1113 45.5717L12.5908 31.1713C12.4223 30.2076 13.1642 29.3246 14.1426 29.3246Z" stroke="url(#paint17_linear_170_10866)" stroke-opacity="0.3" stroke-width="0.45"/>
</g>
</g>
<defs>
<filter id="filter0_i_170_10866" x="20.9532" y="15.8576" width="9.77545" height="13.7869" filterUnits="userSpaceOnUse" color-interpolation-filters="sRGB">
<feFlood flood-opacity="0" result="BackgroundImageFix"/>
<feBlend mode="normal" in="SourceGraphic" in2="BackgroundImageFix" result="shape"/>
<feColorMatrix in="SourceAlpha" type="matrix" values="0 0 0 0 0 0 0 0 0 0 0 0 0 0 0 0 0 0 127 0" result="hardAlpha"/>
<feOffset dy="1.8"/>
<feGaussianBlur stdDeviation="0.9"/>
<feComposite in2="hardAlpha" operator="arithmetic" k2="-1" k3="1"/>
<feColorMatrix type="matrix" values="0 0 0 0 0.898039 0 0 0 0 0.937255 0 0 0 0 0.988235 0 0 0 0.2 0"/>
<feBlend mode="multiply" in2="shape" result="effect1_innerShadow_170_10866"/>
</filter>
<linearGradient id="paint0_linear_170_10866" x1="30" y1="23.7" x2="30" y2="32.0105" gradientUnits="userSpaceOnUse">
<stop stop-color="#1D4ED8"/>
<stop offset="1" stop-color="#1C40A4"/>
</linearGradient>
<linearGradient id="paint1_linear_170_10866" x1="27.7922" y1="15.1948" x2="27.7922" y2="39.0976" gradientUnits="userSpaceOnUse">
<stop stop-color="#F6FAFF"/>
<stop offset="1" stop-color="#CEDDF2"/>
</linearGradient>
<linearGradient id="paint2_linear_170_10866" x1="35.0086" y1="24.3655" x2="16.4353" y2="20.4916" gradientUnits="userSpaceOnUse">
<stop stop-color="#F8FBFF"/>
<stop offset="0.834886" stop-color="#CEDDF2"/>
<stop offset="1" stop-color="#F6FAFF"/>
</linearGradient>
<linearGradient id="paint3_linear_170_10866" x1="32.3818" y1="12.9" x2="32.3818" y2="37.2" gradientUnits="userSpaceOnUse">
<stop offset="0.321412" stop-color="white"/>
<stop offset="1" stop-color="#E5EFFC"/>
</linearGradient>
<linearGradient id="paint4_linear_170_10866" x1="31.3992" y1="25.2284" x2="31.8478" y2="30.9558" gradientUnits="userSpaceOnUse">
<stop offset="0.371724" stop-color="#E5EFFC" stop-opacity="0"/>
<stop offset="0.918132" stop-color="#C6DAF3"/>
</linearGradient>
<linearGradient id="paint5_linear_170_10866" x1="22.4034" y1="16.4548" x2="31.9993" y2="29.2325" gradientUnits="userSpaceOnUse">
<stop stop-color="#E5E7EB"/>
<stop offset="1" stop-color="#E5EFFC"/>
</linearGradient>
<linearGradient id="paint6_linear_170_10866" x1="33.6881" y1="17.6029" x2="40.5286" y2="21.3492" gradientUnits="userSpaceOnUse">
<stop stop-color="#E5E7EB"/>
<stop offset="1" stop-color="#E5EDF9"/>
</linearGradient>
<linearGradient id="paint7_linear_170_10866" x1="33.2396" y1="21.2107" x2="42.7298" y2="21.3961" gradientUnits="userSpaceOnUse">
<stop stop-color="#E5E7EB"/>
<stop offset="1" stop-color="#E5EDF9"/>
</linearGradient>
<linearGradient id="paint8_linear_170_10866" x1="39.071" y1="24.424" x2="33.0501" y2="23.5782" gradientUnits="userSpaceOnUse">
<stop stop-color="#E5EDF9"/>
<stop offset="1" stop-color="#E5E7EB"/>
</linearGradient>
<linearGradient id="paint9_linear_170_10866" x1="33.6881" y1="17.6029" x2="40.5286" y2="21.3492" gradientUnits="userSpaceOnUse">
<stop stop-color="#E5E7EB"/>
<stop offset="1" stop-color="#E5EDF9"/>
</linearGradient>
<linearGradient id="paint10_linear_170_10866" x1="33.2396" y1="21.2107" x2="42.7298" y2="21.3961" gradientUnits="userSpaceOnUse">
<stop stop-color="#E5E7EB"/>
<stop offset="1" stop-color="#E5EDF9"/>
</linearGradient>
<linearGradient id="paint11_linear_170_10866" x1="39.071" y1="24.424" x2="33.0501" y2="23.5782" gradientUnits="userSpaceOnUse">
<stop stop-color="#E5EDF9"/>
<stop offset="1" stop-color="#E5E7EB"/>
</linearGradient>
<linearGradient id="paint12_linear_170_10866" x1="33.6881" y1="17.6029" x2="40.5286" y2="21.3492" gradientUnits="userSpaceOnUse">
<stop stop-color="#E5E7EB"/>
<stop offset="1" stop-color="#E5EDF9"/>
</linearGradient>
<linearGradient id="paint13_linear_170_10866" x1="33.2396" y1="21.2107" x2="42.7298" y2="21.3961" gradientUnits="userSpaceOnUse">
<stop stop-color="#E5E7EB"/>
<stop offset="1" stop-color="#E5EDF9"/>
</linearGradient>
<linearGradient id="paint14_linear_170_10866" x1="39.071" y1="24.424" x2="33.0501" y2="23.5782" gradientUnits="userSpaceOnUse">
<stop stop-color="#E5EDF9"/>
<stop offset="1" stop-color="#E5E7EB"/>
</linearGradient>
<linearGradient id="paint15_linear_170_10866" x1="29.775" y1="14.9105" x2="29.775" y2="58.1105" gradientUnits="userSpaceOnUse">
<stop stop-color="#1D4ED8"/>
<stop offset="1" stop-color="#00AEFF"/>
</linearGradient>
<linearGradient id="paint16_linear_170_10866" x1="29.775" y1="36.5105" x2="29.775" y2="51.8105" gradientUnits="userSpaceOnUse">
<stop stop-color="white" stop-opacity="0"/>
<stop offset="1" stop-color="white"/>
</linearGradient>
<linearGradient id="paint17_linear_170_10866" x1="30.2209" y1="29.1" x2="29.3291" y2="47.1" gradientUnits="userSpaceOnUse">
<stop stop-color="white"/>
<stop offset="0.512493" stop-color="white" stop-opacity="0"/>
</linearGradient>
<clipPath id="clip0_170_10866">
<rect width="60" height="60" rx="12" fill="white"/>
</clipPath>
<clipPath id="clip1_170_10866">
<rect width="36" height="36" fill="white" transform="translate(12 12)"/>
</clipPath>
</defs>
</svg>
